X:1
T:Title
%%score 1 2
L:1/8
Q:1/4=95
M:6/8
K:F
V:1 treble nm="Grand Piano, Soprano"
V:2 bass nm="Choir Pad, Shall We Sing in Heaven?"
V:1
 F2 F [FA]2 [FA] | [Ac]2 [Bd] [Ac]2 [FA] | [EG]2 [FA] [GB]3 | [FA]2 [GB] [Ac]3 | F2 F [FA]2 [FA] | %5
w: By~William~Batchelder~Bradbury * * *|||||
 [Ac]2 [Bd] [Ac]2 [FA] | [DG]2 [GB] [GB]2 [EG] | F6 | [Ac]3 [Gc]3 | [Ff]3 [Ge]2 [Ge] | %10
w: |||||
 [Fd]2 [Fd] [Ec]2 [D=B] | [Ec]6 | F2 F [FA]2 [FA] | [Ac]2 [Bd] [Ac]2 [FA] | [EG]2 [FA] [GB]2 [Ac] | %15
w: |||||
 [Bd]2 [Ac] [Ac]2 [FA] | F2 F [FA]2 [FA] | [Ac]2 [Bd] [Ac]2 [FA] | [DG]2 [GB] [FA]2 [EG] | F6- | %20
w: |||||
 F3 z3 |] %21
w: |
V:2
 F,2 F, F,2 F, | F,2 F, F,2 F, | C,2 C, C,3 | F,2 F, F,3 | F,2 F, F,2 F, | F,2 F, F,2 F, | %6
 B,,2 B,, C,2 C, | F,6 | F,3 E,3 | D,3 C,2 C, | F,2 F, G,2 G, | C,6 | F,2 F, F,2 F, | %13
 F,2 F, F,2 F, | C,2 C, C,2 C, | E,2 E, F,2 F, | F,2 F, F,2 F, | F,2 F, F,2 F, | B,,2 B,, C,2 C, | %19
 F,6- | F,3 z3 |] %21

